src/lib/packages/icons/src/assets/line/octagon-check.svg

<svg width="24" height="24" viewBox="0 0 24 24" fill="none" xmlns="http://www.w3.org/2000/svg">
<path d="M15.3789 21.75H8.62109C8.02909 21.75 7.44903 21.5101 7.03003 21.0911L2.90894 16.97C2.48994 16.551 2.25 15.9709 2.25 15.3789V8.62109C2.25 8.02909 2.48994 7.44903 2.90894 7.03003L7.03003 2.90894C7.44903 2.48994 8.02909 2.25 8.62109 2.25H15.3789C15.9709 2.25 16.551 2.48994 16.97 2.90894L21.0911 7.03003C21.5101 7.44903 21.75 8.02909 21.75 8.62109V15.3789C21.75 15.9709 21.5101 16.551 21.0911 16.97L16.97 21.0911C16.551 21.5101 15.9709 21.75 15.3789 21.75ZM8.62109 3.75C8.42409 3.75 8.23006 3.82997 8.09106 3.96997L3.96997 8.09106C3.82997 8.23106 3.75 8.42409 3.75 8.62109V15.3789C3.75 15.5759 3.82997 15.7699 3.96997 15.9089L8.09106 20.03C8.23106 20.17 8.42409 20.25 8.62109 20.25H15.3789C15.5759 20.25 15.7699 20.17 15.9089 20.03L20.03 15.9089C20.17 15.7689 20.25 15.5759 20.25 15.3789V8.62109C20.25 8.42409 20.17 8.23006 20.03 8.09106L15.9089 3.96997C15.7689 3.82997 15.5759 3.75 15.3789 3.75H8.62109ZM11.53 14.53L15.53 10.53C15.823 10.237 15.823 9.76199 15.53 9.46899C15.237 9.17599 14.762 9.17599 14.469 9.46899L10.999 12.939L9.52905 11.469C9.23605 11.176 8.76102 11.176 8.46802 11.469C8.17502 11.762 8.17502 12.237 8.46802 12.53L10.468 14.53C10.614 14.676 10.806 14.75 10.998 14.75C11.19 14.75 11.384 14.677 11.53 14.53Z" fill="currentColor"/>
</svg>

<svg xmlns="http://www.w3.org/2000/svg" width="24" height="24" fill="none"><path fill="currentColor" d="M15.379 21.75H8.62c-.592 0-1.172-.24-1.591-.659l-4.12-4.121c-.42-.419-.659-1-.659-1.591V8.62c0-.592.24-1.172.659-1.591l4.121-4.12c.419-.42 1-.659 1.591-.659h6.758c.592 0 1.172.24 1.591.659l4.121 4.121c.42.419.659 1 .659 1.591v6.758c0 .592-.24 1.172-.659 1.591l-4.121 4.121c-.419.42-1 .659-1.591.659Zm-6.758-18a.753.753 0 0 0-.53.22L3.97 8.091a.755.755 0 0 0-.22.53v6.758c0 .197.08.39.22.53l4.121 4.121c.14.14.333.22.53.22h6.758c.197 0 .39-.08.53-.22l4.121-4.121c.14-.14.22-.333.22-.53V8.62a.753.753 0 0 0-.22-.53l-4.121-4.12a.754.754 0 0 0-.53-.22H8.62Zm2.909 10.78 4-4a.75.75 0 1 0-1.061-1.061l-3.47 3.47-1.47-1.47a.75.75 0 0 0-1.061 1.061l2 2a.748.748 0 0 0 1.062 0Z"/></svg>
